X:1
T:Bangkok, 98.98 D
T:Bangkok, 98.98 D
T:William James Kirkpatrick, 1891
T:Public Domain Courtesy of the Cyber Hymnal™
C:William James Kirkpatrick, 1891
Z:Public Domain
Z:Courtesy of the Cyber Hymnal™
%%score ( 1 2 ) ( 3 4 )
L:1/8
Q:1/4=110
M:9/8
K:C
V:1 treble 
V:2 treble 
V:3 bass 
V:4 bass 
V:1
 [EG]3 | [EG]4 [FA][EG] [CE][CD]C | [CA]3 [CG]3 [Ec]3 | [DB]4 [B,D][CE] [DF][FA][EG] | %4
 [CE]6 [EG]3 | [EG]4 [FA][EG] [CE][CD]C | [CA]3 [Cc]3 [EA]3 | [DG]4 [B,D][DB] [CA][CE][D^F] | %8
 [B,G]6 G2 G | [Fd]4 [Ge][Fd] [FB][FA][FG] | [EG]3 [Ec]3 [CE]3 | [EA]4 [EA][EA] [^FA][FB][Fc] | %12
 [GB]3 [FA]3 G3 | [Ge]4 [Gd][Gc] [Fd][Fc][FA] | [EG]3 [CE]3 [Ec]3 | [FB]4 [FB][FB] [FA][EG][FB] | %16
 [Ec]6 |] %17
V:2
 x3 | x8 C | x9 | x9 | x9 | x8 C | x9 | x9 | x6 G2 G | x9 | x9 | x9 | x6 G3 | x9 | x9 | x9 | x6 |] %17
V:3
 [C,C]3 | [C,C]4 [C,C][C,C] [C,G,][C,F,][C,E,] | [C,F,]3 [C,E,]3 [C,G,]3 | %3
 G,4 G,G, [G,,G,][G,,G,][G,,G,] | [C,G,]6 [C,C]3 | [C,C]4 [C,C][C,C] [C,G,][C,F,][C,E,] | %6
 [C,F,]3 [C,E,]3 [C,C]3 | [D,B,]4 [D,G,][D,G,] [D,^F,][D,G,][D,A,] | [G,,G,]6 G,2 G, | %9
 [G,B,]2 [G,B,] [G,B,][G,C][G,B,] [G,D][G,C][G,B,] | [C,C]3 [C,G,]3 [C,G,]3 | %11
 [A,,C]2 [A,,C] [A,,C][A,,C][A,,C] [D,C][D,C][D,C] | D3 C3 [G,B,]3 | %13
 [C,C]2 [C,C] [C,C][D,B,][E,C] [F,A,][F,A,][F,C] | [C,C]3 [C,G,]3 [C,G,]3 | %15
 G,[G,D][G,D] [G,D]2 [G,D] [G,D]2 G, | [C,G,]6 |] %17
V:4
 x3 | x9 | x9 | G,4 G,G, x3 | x9 | x9 | x9 | x9 | x6 G,2 G, | x9 | x9 | x9 | G,6 x3 | x9 | x9 | %15
 G, x6 G, x | x6 |] %17

